; HEADER_BLOCK_START
; generated by OrcaSlicer 2.3.1 on 2025-10-21 at 02:28:01
; total layer number: 240
; filament_density: 1.24
; filament_diameter: 1.75
; max_z_height: 48.05
; HEADER_BLOCK_END

; THUMBNAIL_BLOCK_START

;
; THUMBNAIL_BLOCK_END

; THUMBNAIL_BLOCK_START

;
; THUMBNAIL_BLOCK_END

; THUMBNAIL_BLOCK_START

;
; THUMBNAIL_BLOCK_END

; external perimeters extrusion width = 0.40mm
; perimeters extrusion width = 0.42mm
; infill extrusion width = 0.45mm
; solid infill extrusion width = 0.45mm
; top infill extrusion width = 0.42mm
; first layer extrusion width = 0.50mm

; EXECUTABLE_BLOCK_START
EXCLUDE_OBJECT_DEFINE NAME=3DBenchy.stl_id_0_copy_0 CENTER=175,175 POLYGON=[[145,174.973],[145.001,174.912],[145.004,174.851],[145.009,174.791],[145.015,174.73],[145.023,174.669],[145.032,174.609],[145.042,174.551],[145.055,174.488],[145.068,174.431],[145.084,174.368],[145.099,174.314],[145.117,174.255],[145.137,174.197],[145.158,174.139],[145.18,174.082],[145.204,174.026],[145.229,173.97],[145.256,173.914],[145.284,173.86],[145.314,173.806],[145.345,173.752],[145.377,173.699],[145.411,173.647],[145.528,173.473],[145.661,173.279],[145.795,173.086],[145.929,172.894],[146.065,172.703],[146.203,172.513],[146.341,172.324],[146.48,172.136],[146.621,171.95],[146.763,171.764],[146.906,171.58],[147.05,171.396],[147.196,171.214],[147.342,171.032],[147.49,170.852],[147.639,170.672],[147.79,170.494],[147.941,170.317],[148.094,170.14],[148.248,169.965],[148.403,169.791],[148.518,169.663],[148.675,169.491],[148.833,169.32],[148.992,169.15],[149.152,168.982],[149.313,168.814],[149.475,168.648],[149.801,168.32],[150.131,167.998],[150.297,167.839],[150.465,167.681],[150.633,167.525],[150.802,167.37],[150.972,167.216],[151.143,167.063],[151.315,166.911],[151.488,166.761],[151.662,166.612],[151.837,166.464],[152.013,166.318],[152.19,166.173],[152.368,166.029],[152.546,165.886],[152.726,165.744],[152.907,165.604],[153.089,165.465],[153.272,165.327],[153.456,165.19],[153.641,165.055],[153.827,164.92],[154.014,164.788],[154.201,164.656],[154.39,164.526],[154.58,164.397],[154.77,164.269],[154.962,164.143],[155.154,164.018],[155.348,163.894],[155.542,163.772],[155.737,163.651],[155.934,163.531],[156.131,163.413],[156.329,163.296],[156.528,163.181],[156.728,163.066],[156.928,162.954],[157.13,162.842],[157.406,162.693],[157.605,162.588],[157.804,162.484],[158.004,162.382],[158.205,162.281],[158.406,162.182],[158.608,162.084],[158.81,161.988],[159.013,161.893],[159.217,161.8],[159.421,161.708],[159.626,161.617],[159.831,161.528],[160.037,161.441],[160.244,161.355],[160.334,161.318],[160.451,161.27],[160.659,161.187],[160.878,161.102],[160.997,161.056],[161.296,160.943],[161.507,160.866],[161.707,160.794],[161.929,160.716],[162.116,160.652],[162.344,160.576],[162.557,160.506],[162.794,160.43],[162.995,160.368],[163.021,160.36],[163.249,160.291],[163.477,160.224],[163.705,160.159],[163.858,160.116],[163.935,160.095],[164.076,160.057],[164.294,159.999],[164.394,159.973],[164.512,159.943],[164.731,159.888],[165.157,159.782],[165.684,159.681],[165.694,159.68],[165.95,159.656],[165.997,159.652],[166.19,159.636],[166.275,159.629],[166.439,159.616],[166.519,159.61],[166.866,159.586],[167.312,159.559],[167.351,159.557],[167.736,159.538],[167.874,159.532],[168.222,159.519],[168.436,159.513],[168.657,159.507],[169.093,159.5],[169.479,159.498],[169.823,159.498],[170.123,159.501],[170.179,159.502],[170.401,159.506],[170.543,159.509],[170.661,159.512],[170.834,159.517],[170.923,159.52],[171.069,159.525],[171.248,159.532],[171.271,159.533],[171.429,159.54],[171.537,159.545],[171.668,159.552],[171.866,159.563],[172.11,159.577],[172.355,159.593],[172.371,159.594],[172.657,159.615],[172.903,159.634],[173.151,159.655],[173.332,159.672],[173.396,159.678],[173.576,159.695],[173.821,159.72],[173.888,159.727],[174.065,159.746],[174.381,159.782],[174.627,159.812],[174.795,159.834],[175.117,159.876],[203.172,163.78],[203.207,163.785],[203.257,163.793],[203.314,163.804],[203.347,163.811],[203.403,163.825],[203.416,163.828],[203.452,163.838],[203.463,163.841],[203.519,163.858],[203.571,163.875],[203.584,163.879],[203.638,163.899],[203.688,163.919],[203.746,163.944],[203.802,163.97],[203.845,163.991],[203.895,164.018],[203.914,164.028],[203.955,164.052],[204.007,164.083],[204.021,164.092],[204.056,164.115],[204.065,164.121],[204.114,164.154],[204.153,164.183],[204.16,164.189],[204.207,164.225],[204.244,164.256],[204.252,164.262],[204.295,164.3],[204.338,164.34],[204.36,164.36],[204.401,164.402],[204.407,164.408],[204.442,164.445],[204.461,164.466],[204.481,164.489],[204.519,164.534],[204.556,164.58],[204.569,164.598],[204.593,164.63],[204.627,164.678],[204.642,164.7],[204.657,164.722],[204.692,164.776],[204.722,164.827],[204.75,164.878],[204.769,164.916],[204.782,164.94],[204.804,164.988],[204.83,165.046],[204.851,165.097],[204.873,165.151],[204.892,165.207],[204.892,165.21],[204.909,165.262],[204.925,165.318],[204.94,165.375],[204.954,165.436],[204.965,165.493],[204.974,165.546],[204.976,165.552],[204.983,165.604],[204.989,165.647],[204.991,165.675],[204.998,165.755],[205,165.792],[205,165.821],[205,184.184],[204.998,184.245],[204.993,184.301],[204.989,184.354],[204.987,184.37],[204.98,184.417],[204.972,184.475],[204.954,184.564],[204.942,184.621],[204.926,184.678],[204.92,184.704],[204.903,184.761],[204.873,184.845],[204.86,184.882],[204.837,184.936],[204.83,184.953],[204.814,184.99],[204.791,185.042],[204.769,185.084],[204.737,185.146],[204.722,185.173],[204.709,185.194],[204.66,185.273],[204.629,185.321],[204.612,185.345],[204.595,185.369],[204.56,185.416],[204.517,185.469],[204.491,185.499],[204.461,185.534],[204.421,185.577],[204.407,185.592],[204.399,185.6],[204.38,185.619],[204.358,185.641],[204.338,185.66],[204.295,185.7],[204.263,185.729],[204.217,185.766],[204.207,185.775],[204.171,185.803],[204.114,185.846],[204.065,185.879],[204.021,185.908],[203.955,185.948],[203.929,185.964],[203.877,185.992],[203.851,186.005],[203.825,186.019],[203.802,186.03],[203.746,186.056],[203.688,186.081],[203.638,186.101],[203.584,186.121],[203.571,186.125],[203.528,186.139],[203.515,186.143],[203.459,186.16],[203.452,186.162],[203.416,186.172],[203.36,186.186],[203.317,186.195],[203.289,186.201],[203.261,186.206],[203.202,186.216],[175.187,190.114],[174.944,190.147],[174.7,190.179],[174.457,190.209],[174.117,190.248],[173.894,190.272],[173.649,190.298],[173.403,190.322],[173.157,190.344],[172.912,190.365],[172.746,190.378],[172.666,190.384],[172.476,190.398],[172.42,190.402],[172.173,190.419],[172.013,190.429],[171.929,190.434],[171.767,190.443],[171.511,190.456],[171.403,190.461],[171.381,190.462],[171.244,190.468],[171.093,190.474],[170.95,190.479],[170.832,190.483],[170.767,190.485],[170.657,190.488],[170.539,190.491],[170.451,190.493],[170.31,190.496],[170.119,190.499],[169.938,190.501],[169.819,190.502],[169.422,190.502],[169.066,190.5],[168.631,190.492],[168.551,190.49],[168.195,190.48],[168.088,190.476],[167.76,190.463],[167.324,190.442],[166.991,190.422],[166.908,190.417],[166.798,190.41],[166.625,190.398],[166.505,190.389],[166.359,190.378],[166.272,190.371],[166.091,190.356],[165.961,190.345],[165.168,190.22],[165.159,190.218],[164.731,190.112],[164.623,190.085],[164.405,190.03],[164.263,189.993],[164.187,189.973],[164.033,189.932],[163.752,189.855],[163.576,189.805],[163.32,189.73],[163.104,189.666],[162.89,189.6],[162.668,189.53],[162.442,189.457],[162.248,189.393],[161.992,189.306],[161.822,189.247],[161.768,189.228],[161.6,189.168],[161.399,189.095],[161.178,189.013],[160.967,188.933],[160.767,188.855],[160.657,188.812],[160.557,188.772],[160.547,188.768],[160.338,188.684],[160.129,188.598],[160.074,188.575],[159.866,188.487],[159.659,188.397],[159.453,188.307],[159.043,188.121],[158.84,188.026],[158.637,187.93],[158.435,187.832],[158.234,187.733],[158.033,187.633],[157.834,187.531],[157.635,187.428],[157.437,187.323],[157.239,187.217],[157.043,187.11],[156.847,187.001],[156.652,186.89],[156.457,186.779],[156.263,186.666],[156.07,186.551],[155.878,186.435],[155.686,186.317],[155.495,186.199],[155.304,186.078],[155.115,185.957],[154.926,185.833],[154.738,185.709],[154.55,185.583],[154.363,185.456],[154.177,185.327],[153.992,185.197],[153.808,185.066],[153.624,184.933],[153.441,184.799],[153.258,184.663],[153.077,184.526],[152.896,184.388],[152.716,184.248],[152.537,184.107],[152.358,183.964],[152.18,183.82],[152.003,183.675],[151.827,183.528],[151.652,183.379],[151.477,183.23],[151.303,183.079],[151.13,182.926],[150.958,182.772],[150.786,182.616],[150.672,182.511],[150.503,182.355],[150.335,182.197],[150.169,182.038],[150.004,181.878],[149.839,181.717],[149.676,181.555],[149.514,181.391],[149.353,181.227],[149.193,181.061],[149.034,180.894],[148.876,180.726],[148.719,180.557],[148.563,180.386],[148.408,180.215],[148.255,180.042],[148.102,179.868],[147.95,179.694],[147.8,179.517],[147.651,179.34],[147.502,179.162],[147.355,178.983],[147.209,178.802],[147.064,178.62],[146.92,178.437],[146.777,178.253],[146.636,178.068],[146.495,177.882],[146.355,177.695],[146.217,177.507],[146.08,177.317],[145.944,177.126],[145.809,176.935],[145.675,176.742],[145.542,176.548],[145.411,176.353],[145.382,176.308],[145.349,176.255],[145.318,176.202],[145.288,176.148],[145.259,176.093],[145.232,176.038],[145.182,175.924],[145.166,175.883],[145.144,175.825],[145.124,175.767],[145.105,175.708],[145.088,175.649],[145.072,175.587],[145.058,175.53],[145.046,175.47],[145.034,175.407],[145.025,175.348],[145.017,175.287],[145.01,175.226],[145.005,175.164],[145.002,175.095],[145,175.034],[145,174.973]]
M73 P0 R29
;TYPE:Custom
M104 S0
M140 S0
START_PRINT EXTRUDER_TEMP=235 BED_TEMP=55 MATERIAL=PLA
G90
G21
M83 ; use relative distances for extrusion
; Filament gcode
M106 S0
;LAYER_CHANGE
;Z:0.25
;HEIGHT:0.25
G92 E0
G1 E-.5 F1800
;_SET_FAN_SPEED_CHANGING_LAYER
SET_VELOCITY_LIMIT ACCEL=3000 ACCEL_TO_DECEL=1500
G1 Z.65 F36000
G1 X166.242 Y164.283
G1 Z.65
G1 Z.25
G1 E.5 F1800
;TYPE:Skirt
;WIDTH:0.5
G1 F3000
G1 X167.512 Y163.661 E.06433
G1 X169.899 Y162.859 E.11446
G1 X172.474 Y162.354 E.11931
G1 X175.154 Y162.198 E.12204
G1 X199.797 Y163.681 E1.12244
G1 X200.673 Y163.831 E.04039
G1 X201.493 Y164.088 E.03907
G1 X202.25 Y164.44 E.03798
G1 X202.939 Y164.878 E.03713
G1 X203.983 Y165.835 E.06438
G1 X204.741 Y166.913 E.05991
G1 X205.285 Y168.197 E.06343
G1 X205.548 Y169.587 E.06431
G1 X205.546 Y180.428 E.49289
G1 X205.402 Y181.362 E.04294
G1 X205.151 Y182.202 E.03989
G1 X204.775 Y183.026 E.04117
G1 X204.303 Y183.768 E.04
G1 X203.374 Y184.776 E.0623
G1 X202.333 Y185.513 E.05801
G1 X201.173 Y186.027 E.05765
G1 X200.055 Y186.287 E.05219
G1 X175.073 Y187.803 E1.13791
G1 X173.481 Y187.749 E.07241
G1 X171.884 Y187.562 E.07309
G1 X170.479 Y187.287 E.06512
G1 X168.912 Y186.851 E.07394
G1 X167.161 Y186.191 E.08508
G1 X165.906 Y185.594 E.06316
G1 X164.613 Y184.858 E.06764
G1 X163.421 Y184.058 E.06531
G1 X161.783 Y182.727 E.09594
G1 X160.207 Y181.125 E.10218
G1 X158.811 Y179.334 E.10322
G1 X157.765 Y177.609 E.09173
G1 X157.382 Y176.593 E.04938
G1 X157.243 Y175.955 E.02967
G1 X157.179 Y174.597 E.06181
G1 X157.433 Y173.237 E.06289
G1 X157.946 Y172.042 E.05914
G1 X159.33 Y169.95 E.11404
G1 X161.05 Y167.972 E.11918
G1 X163.001 Y166.256 E.11814
G1 X165.183 Y164.802 E.11921
G1 X166.206 Y164.301 E.05175
; printing object 3DBenchy.stl id:0 copy 0
EXCLUDE_OBJECT_START NAME=3DBenchy.stl_id_0_copy_0
G1 X166.398 Y164.662 F36000
;TYPE:Brim
G1 F1800
G1 X166.554 Y164.58 E.00803
G1 X167.688 Y164.071 E.05653
G1 X168.749 Y163.673 E.0515
G1 X170.007 Y163.292 E.05978
G1 X171.2 Y163.014 E.05568
G1 X172.523 Y162.797 E.06094
G1 X173.862 Y162.674 E.06116
G1 X175.144 Y162.644 E.0583
G1 X176.119 Y162.679 E.04435
G1 X199.762 Y164.126 E1.07692
G1 X200.12 Y164.174 E.01644
G1 X200.576 Y164.267 E.02114
G1 X200.952 Y164.371 E.01774
G1 X201.335 Y164.505 E.01845
G1 X202.033 Y164.83 E.03502
G1 X202.351 Y165.018 E.0168
G1 X202.681 Y165.241 E.0181
G1 X203.155 Y165.627 E.02779
G1 X203.656 Y166.139 E.03258
G1 X203.96 Y166.52 E.02214
G1 X204.348 Y167.125 E.03267
G1 X204.573 Y167.568 E.02262
G1 X204.856 Y168.32 E.0365
G1 X204.991 Y168.847 E.02474
G1 X205.102 Y169.617 E.0354
G1 X205.125 Y170.144 E.02396
G1 X205.125 Y179.872 E.4423
G1 X205.102 Y180.385 E.02335
G1 X205.056 Y180.784 E.01825
G1 X204.965 Y181.271 E.02253
G1 X204.855 Y181.683 E.01938
G1 X204.731 Y182.052 E.0177
G1 X204.566 Y182.448 E.01951
G1 X204.386 Y182.807 E.01826
G1 X204.205 Y183.117 E.01631
G1 X203.947 Y183.499 E.02094
G1 X203.729 Y183.776 E.01605
G1 X203.425 Y184.113 E.02061
G1 X203.074 Y184.445 E.022
G1 X202.708 Y184.738 E.02129
G1 X202.1 Y185.132 E.03296
G1 X201.626 Y185.372 E.02416
G1 X201.022 Y185.606 E.02945
G1 X200.531 Y185.743 E.0232
G1 X200 Y185.844 E.02455
G1 X199.489 Y185.897 E.02337
G1 X176.098 Y187.323 E1.06542
G1 X175.073 Y187.357 E.04661
G1 X174.324 Y187.347 E.03409
G1 X173.51 Y187.303 E.03702
G1 X172.557 Y187.208 E.04357
G1 X171.951 Y187.121 E.02783
G1 X171.377 Y187.022 E.02648
G1 X170.586 Y186.853 E.03676
G1 X169.688 Y186.621 E.04216
G1 X169.046 Y186.425 E.03055
G1 X168.412 Y186.208 E.03043
G1 X167.331 Y185.778 E.05292
G1 X166.676 Y185.48 E.03271
G1 X166.109 Y185.196 E.02881
G1 X165.573 Y184.907 E.02771
G1 X164.851 Y184.48 E.03813
G1 X164.319 Y184.14 E.02869
G1 X163.689 Y183.701 E.0349
G1 X162.775 Y182.994 E.05254
G1 X162.088 Y182.401 E.04129
G1 X161.282 Y181.628 E.05075
G1 X160.545 Y180.834 E.04926
G1 X159.974 Y180.152 E.04044
G1 X159.181 Y179.085 E.06042
G1 X158.593 Y178.179 E.0491
G1 X158.171 Y177.424 E.03934
G1 X157.946 Y176.892 E.02626
G1 X157.811 Y176.467 E.02028
G1 X157.682 Y175.873 E.02764
G1 X157.616 Y175.218 E.02993
G1 X157.625 Y174.616 E.02736
G1 X157.706 Y173.991 E.02866
G1 X157.863 Y173.356 E.02973
G1 X158.061 Y172.818 E.02608
G1 X158.342 Y172.249 E.02883
G1 X158.969 Y171.229 E.05443
G1 X159.681 Y170.226 E.05594
G1 X160.492 Y169.227 E.05851
G1 X161.363 Y168.291 E.05812
G1 X162.157 Y167.537 E.04979
G1 X162.807 Y166.979 E.03895
G1 X163.274 Y166.609 E.02709
G1 X164.309 Y165.867 E.05789
G1 X165.399 Y165.192 E.05829
G1 X166.362 Y164.681 E.04957
G1 X166.572 Y165.075 F36000
G1 F1800
G1 X166.746 Y164.983 E.00897
G1 X167.854 Y164.486 E.05524
G1 X168.896 Y164.095 E.0506
G1 X170.127 Y163.722 E.05846
G1 X171.291 Y163.451 E.05434
G1 X172.584 Y163.24 E.05956
G1 X173.883 Y163.12 E.05932
G1 X175.145 Y163.091 E.0574
G1 X176.099 Y163.125 E.0434
G1 X199.714 Y164.571 E1.07565
G1 X200.051 Y164.615 E.01545
G1 X200.467 Y164.7 E.0193
G1 X201.156 Y164.916 E.03283
G1 X201.819 Y165.223 E.03324
G1 X202.406 Y165.594 E.03154
G1 X202.859 Y165.963 E.02656
G1 X203.317 Y166.43 E.02974
G1 X203.601 Y166.786 E.02068
G1 X203.963 Y167.353 E.03059
G1 X204.166 Y167.755 E.02051
G1 X204.431 Y168.461 E.03428
G1 X204.553 Y168.941 E.02253
G1 X204.657 Y169.666 E.03328
G1 X204.678 Y170.156 E.02231
G1 X204.678 Y179.86 E.44116
G1 X204.657 Y180.345 E.02211
G1 X204.614 Y180.722 E.01724
G1 X204.53 Y181.168 E.02061
G1 X204.311 Y181.899 E.0347
G1 X204.161 Y182.258 E.0177
G1 X203.995 Y182.591 E.01691
G1 X203.591 Y183.228 E.03429
G1 X203.112 Y183.794 E.03373
G1 X202.785 Y184.105 E.02051
G1 X202.441 Y184.379 E.01999
G1 X201.883 Y184.741 E.03022
G1 X201.438 Y184.966 E.0227
G1 X200.887 Y185.18 E.02685
G1 X200.423 Y185.309 E.0219
G1 X199.93 Y185.403 E.02284
G1 X199.449 Y185.452 E.02195
G1 X176.079 Y186.877 E1.0645
G1 X175.066 Y186.91 E.04609
G1 X174.336 Y186.901 E.03319
G1 X173.548 Y186.858 E.03587
G1 X172.614 Y186.765 E.04269
G1 X172.023 Y186.68 E.02714
G1 X170.686 Y186.418 E.06195
G1 X169.812 Y186.192 E.04103
G1 X169.185 Y186.001 E.02979
G1 X168.564 Y185.788 E.02984
G1 X167.509 Y185.369 E.05165
G1 X166.313 Y184.799 E.06019
G1 X165.79 Y184.517 E.02703
G1 X165.083 Y184.099 E.03735
G1 X164.565 Y183.767 E.02796
G1 X163.956 Y183.343 E.03373
G1 X163.061 Y182.65 E.05148
G1 X162.386 Y182.068 E.04053
G1 X161.604 Y181.317 E.04929
G1 X160.878 Y180.536 E.04848
G1 X160.323 Y179.872 E.03936
G1 X159.551 Y178.834 E.05882
G1 X158.978 Y177.952 E.04778
G1 X158.57 Y177.221 E.03809
G1 X158.368 Y176.743 E.0236
