; HEADER_BLOCK_START
; generated by OrcaSlicer 2.3.1 on 2025-10-20 at 19:20:05
; total layer number: 1
; filament_density: 1.27
; filament_diameter: 1.75
; max_z_height: 0.25
; HEADER_BLOCK_END

; THUMBNAIL_BLOCK_START

;
; THUMBNAIL_BLOCK_END

; THUMBNAIL_BLOCK_START

;
; THUMBNAIL_BLOCK_END

; THUMBNAIL_BLOCK_START

;
; THUMBNAIL_BLOCK_END

; external perimeters extrusion width = 0.40mm
; perimeters extrusion width = 0.42mm
; infill extrusion width = 0.45mm
; solid infill extrusion width = 0.45mm
; top infill extrusion width = 0.42mm
; first layer extrusion width = 0.50mm

; EXECUTABLE_BLOCK_START
EXCLUDE_OBJECT_DEFINE NAME=FirstLayerCalibration-FirstLayer.stl_id_0_copy_0 CENTER=175,175 POLYGON=[[145,131.8],[205,131.8],[205,218.2],[145,218.2],[145,131.8]]
M73 P0 R4
;TYPE:Custom
M104 S0
M140 S0
START_PRINT EXTRUDER_TEMP=270 BED_TEMP=65 MATERIAL=PETG
G90
G21
M83 ; use relative distances for extrusion
; Filament gcode
SET_PRESSURE_ADVANCE ADVANCE=0.05; Override pressure advance value
M106 S0
;LAYER_CHANGE
;Z:0.25
;HEIGHT:0.25
G92 E0
G1 E-.3 F1800
;_SET_FAN_SPEED_CHANGING_LAYER
SET_VELOCITY_LIMIT ACCEL=3000 ACCEL_TO_DECEL=1500
G1 Z.65 F36000
G1 X140.313 Y133.189
G1 Z.65
G1 Z.25
G1 E.3 F1800
;TYPE:Skirt
;WIDTH:0.5
G1 F3000
G1 X140.313 Y131.8 E.06122
G1 X140.364 Y131.118 E.03016
G1 X140.518 Y130.434 E.03089
G1 X140.771 Y129.78 E.03089
G1 X141.12 Y129.172 E.03089
G1 X141.578 Y128.598 E.03236
G1 X142.094 Y128.124 E.03089
G1 X142.675 Y127.732 E.03089
G1 X143.946 Y127.234 E.06015
G1 X145 Y127.113 E.04677
G1 X205.017 Y127.114 E2.64512
G1 X205.715 Y127.169 E.03089
G1 X207.02 Y127.571 E.06015
G1 X207.655 Y127.939 E.03236
G1 X208.202 Y128.378 E.03089
G1 X209.052 Y129.446 E.06015
G1 X209.358 Y130.076 E.03089
G1 X209.574 Y130.786 E.03272
G1 X209.687 Y131.8 E.04495
G1 X209.687 Y218.2 E3.80791
G1 X209.636 Y218.882 E.03016
M73 P1 R4
G1 X209.482 Y219.566 E.03089
G1 X209.229 Y220.22 E.03089
G1 X208.88 Y220.828 E.03089
G1 X208.422 Y221.402 E.03236
G1 X207.906 Y221.876 E.03089
G1 X207.325 Y222.268 E.03089
G1 X206.054 Y222.766 E.06015
G1 X205 Y222.887 E.04677
G1 X145 Y222.887 E2.64438
G1 X144.318 Y222.836 E.03016
G1 X143.634 Y222.682 E.03089
G1 X142.98 Y222.429 E.03089
G1 X142.372 Y222.08 E.03089
G1 X141.798 Y221.622 E.03236
G1 X141.324 Y221.106 E.03089
G1 X140.932 Y220.525 E.03089
G1 X140.434 Y219.254 E.06015
G1 X140.313 Y218.2 E.04677
M73 P2 R4
G1 X140.313 Y133.229 E3.74492
; printing object FirstLayerCalibration-FirstLayer.stl id:0 copy 0
EXCLUDE_OBJECT_START NAME=FirstLayerCalibration-FirstLayer.stl_id_0_copy_0
G1 X140.76 Y133.229 F36000
;TYPE:Brim
G1 F1800
G1 X140.76 Y131.808 E.06262
G1 X140.808 Y131.168 E.02832
G1 X140.949 Y130.549 E.02795
G1 X141.181 Y129.959 E.02795
G1 X141.498 Y129.41 E.02795
G1 X141.894 Y128.915 E.02795
G1 X142.359 Y128.483 E.02795
G1 X142.883 Y128.127 E.02795
G1 X143.455 Y127.852 E.02795
G1 X144.057 Y127.667 E.02777
G1 X145.012 Y127.56 E.04238
G1 X204.992 Y127.56 E2.64346
G1 X205.632 Y127.608 E.02832
M73 P3 R4
G1 X206.251 Y127.749 E.02795
G1 X206.841 Y127.981 E.02795
G1 X207.39 Y128.298 E.02795
G1 X207.886 Y128.694 E.02795
G1 X208.317 Y129.159 E.02795
G1 X208.673 Y129.683 E.02795
G1 X208.948 Y130.255 E.02795
G1 X209.133 Y130.857 E.02777
G1 X209.24 Y131.812 E.04238
G1 X209.24 Y140.592 E.38692
G1 X209.2 Y141.123 E.02347
G1 X209.24 Y141.512 E.01727
G1 X209.24 Y150.292 E.38692
G1 X209.2 Y150.823 E.02347
G1 X209.24 Y151.212 E.01727
G1 X209.24 Y159.992 E.38692
G1 X209.2 Y160.523 E.02347
G1 X209.24 Y160.912 E.01727
G1 X209.24 Y169.692 E.38692
G1 X209.2 Y170.223 E.02347
M73 P4 R4
G1 X209.24 Y170.612 E.01727
G1 X209.24 Y179.392 E.38692
G1 X209.2 Y179.923 E.02347
G1 X209.24 Y180.312 E.01727
G1 X209.24 Y189.092 E.38692
G1 X209.2 Y189.623 E.02347
G1 X209.24 Y190.012 E.01727
G1 X209.24 Y198.792 E.38692
G1 X209.2 Y199.323 E.02347
G1 X209.24 Y199.712 E.01727
G1 X209.24 Y208.492 E.38692
G1 X209.2 Y209.023 E.02347
G1 X209.24 Y209.412 E.01727
G1 X209.24 Y218.192 E.38692
G1 X209.192 Y218.832 E.02832
G1 X209.051 Y219.451 E.02795
G1 X208.819 Y220.041 E.02795
G1 X208.502 Y220.59 E.02795
G1 X208.106 Y221.086 E.02795
G1 X207.641 Y221.517 E.02795
G1 X207.117 Y221.873 E.02795
G1 X206.545 Y222.148 E.02795
G1 X205.943 Y222.333 E.02777
G1 X204.988 Y222.44 E.04238
G1 X145.008 Y222.44 E2.64346
G1 X144.368 Y222.392 E.02832
M73 P5 R4
G1 X143.749 Y222.251 E.02795
G1 X143.159 Y222.019 E.02795
G1 X142.61 Y221.702 E.02795
G1 X142.114 Y221.306 E.02795
G1 X141.683 Y220.841 E.02795
G1 X141.327 Y220.317 E.02795
G1 X141.052 Y219.745 E.02795
G1 X140.867 Y219.143 E.02777
G1 X140.76 Y218.188 E.04238
G1 X140.76 Y133.269 E3.74261
G1 X141.206 Y133.269 F36000
M73 P6 R4
G1 F1800
G1 X141.206 Y131.83 E.06342
G1 X141.25 Y131.244 E.02588
G1 X141.374 Y130.691 E.02499
G1 X141.58 Y130.163 E.02499
G1 X141.863 Y129.671 E.02499
G1 X142.229 Y129.212 E.02587
G1 X142.646 Y128.828 E.02499
G1 X143.116 Y128.51 E.02499
G1 X143.609 Y128.273 E.02411
G1 X144.136 Y128.109 E.02434
G1 X145.045 Y128.006 E.04031
G1 X204.98 Y128.006 E2.64152
G1 X205.575 Y128.053 E.02632
M73 P7 R4
G1 X206.128 Y128.18 E.02499
G1 X206.655 Y128.389 E.02499
G1 X207.129 Y128.663 E.02411
G1 X207.588 Y129.029 E.02587
G1 X207.972 Y129.446 E.02499
G1 X208.28 Y129.898 E.02411
G1 X208.527 Y130.409 E.02499
G1 X208.696 Y130.961 E.02543
G1 X208.794 Y131.845 E.03922
G1 X208.794 Y140.57 E.38454
G1 X208.756 Y141.079 E.02249
G1 X208.794 Y141.542 E.02049
G1 X208.794 Y150.27 E.38466
G1 X208.756 Y150.779 E.02249
G1 X208.794 Y151.242 E.02049
G1 X208.794 Y159.97 E.38466
G1 X208.756 Y160.479 E.02249
G1 X208.794 Y160.942 E.02049
G1 X208.794 Y169.67 E.38466
G1 X208.756 Y170.179 E.02249
M73 P8 R4
G1 X208.794 Y170.642 E.02049
G1 X208.794 Y179.37 E.38466
G1 X208.756 Y179.879 E.02249
G1 X208.794 Y180.342 E.02049
G1 X208.794 Y189.07 E.38466
G1 X208.756 Y189.579 E.02249
G1 X208.794 Y190.042 E.02049
G1 X208.794 Y198.77 E.38466
G1 X208.756 Y199.279 E.02249
G1 X208.794 Y199.742 E.02049
G1 X208.794 Y208.47 E.38466
G1 X208.756 Y208.979 E.02249
G1 X208.794 Y209.442 E.02049
G1 X208.794 Y218.17 E.38466
G1 X208.75 Y218.756 E.02588
G1 X208.626 Y219.309 E.02499
G1 X208.42 Y219.837 E.02499
G1 X208.137 Y220.329 E.02499
G1 X207.771 Y220.788 E.02587
G1 X207.354 Y221.172 E.02499
G1 X206.884 Y221.49 E.02499
G1 X206.391 Y221.727 E.02411
G1 X205.864 Y221.891 E.02434
G1 X204.955 Y221.994 E.04031
G1 X145.03 Y221.994 E2.64108
G1 X144.444 Y221.95 E.02588
M73 P9 R4
G1 X143.891 Y221.826 E.02499
G1 X143.363 Y221.62 E.02499
G1 X142.871 Y221.337 E.02499
G1 X142.412 Y220.971 E.02587
G1 X142.028 Y220.554 E.02499
G1 X141.71 Y220.084 E.02499
G1 X141.473 Y219.591 E.02411
G1 X141.309 Y219.064 E.02434
G1 X141.206 Y218.155 E.04031
G1 X141.206 Y133.309 E3.73942
G1 X141.652 Y133.309 F36000
M73 P10 R3
G1 F1800
G1 X141.652 Y131.852 E.06424
G1 X141.692 Y131.32 E.02348
G1 X141.8 Y130.832 E.02205
G1 X141.98 Y130.365 E.02204
G1 X142.228 Y129.932 E.022
G1 X142.564 Y129.51 E.02376
G1 X142.932 Y129.173 E.022
G1 X143.347 Y128.894 E.02206
G1 X143.764 Y128.694 E.02035
G1 X144.216 Y128.552 E.02091
G1 X145.078 Y128.452 E.03822
G1 X204.957 Y128.453 E2.63908
G1 X205.497 Y128.494 E.02387
M73 P11 R3
G1 X206.004 Y128.611 E.02292
G1 X206.451 Y128.788 E.02119
G1 X206.868 Y129.027 E.02118
G1 X207.29 Y129.364 E.02378
G1 X207.627 Y129.733 E.02202
G1 X207.897 Y130.131 E.02121
G1 X208.106 Y130.563 E.02114
G1 X208.258 Y131.064 E.02307
G1 X208.348 Y131.877 E.03606
G1 X208.348 Y140.548 E.38217
G1 X208.312 Y141.036 E.02156
G1 X208.348 Y141.566 E.02339
G1 X208.348 Y150.248 E.38267
G1 X208.312 Y150.736 E.02156
G1 X208.348 Y151.266 E.02339
G1 X208.348 Y159.948 E.38267
G1 X208.312 Y160.436 E.02156
G1 X208.348 Y160.966 E.02339
G1 X208.348 Y169.648 E.38267
G1 X208.312 Y170.136 E.02156
G1 X208.348 Y170.666 E.02339
G1 X208.348 Y179.348 E.38268
G1 X208.312 Y179.836 E.02155
M73 P12 R3
G1 X208.348 Y180.366 E.02339
G1 X208.348 Y189.048 E.38267
G1 X208.312 Y189.536 E.02156
G1 X208.348 Y190.066 E.02339
G1 X208.348 Y198.748 E.38267
G1 X208.312 Y199.236 E.02156
G1 X208.348 Y199.766 E.02339
G1 X208.348 Y208.448 E.38267
G1 X208.312 Y208.936 E.02156
G1 X208.348 Y209.466 E.02339
G1 X208.348 Y218.148 E.38267
G1 X208.308 Y218.68 E.02348
G1 X208.2 Y219.168 E.02205
G1 X208.02 Y219.635 E.02204
G1 X207.772 Y220.068 E.022
G1 X207.436 Y220.49 E.02376
G1 X207.068 Y220.827 E.022
G1 X206.653 Y221.106 E.02206
G1 X206.236 Y221.306 E.02035
G1 X205.784 Y221.448 E.02091
G1 X204.922 Y221.548 E.03822
G1 X145.052 Y221.548 E2.63868
G1 X144.52 Y221.508 E.02348
M73 P13 R3
G1 X144.032 Y221.4 E.02205
G1 X143.565 Y221.22 E.02204
G1 X143.132 Y220.972 E.022
G1 X142.71 Y220.636 E.02376
G1 X142.373 Y220.268 E.022
G1 X142.094 Y219.852 E.02206
G1 X141.894 Y219.436 E.02035
G1 X141.752 Y218.984 E.02091
G1 X141.652 Y218.122 E.03822
G1 X141.652 Y133.349 E3.7362
G1 X142.099 Y133.349 F36000
M73 P14 R3
G1 F1800
G1 X142.099 Y131.873 E.06506
G1 X142.134 Y131.395 E.02111
G1 X142.226 Y130.971 E.01913
G1 X142.381 Y130.567 E.01908
G1 X142.593 Y130.192 E.01898
G1 X142.899 Y129.809 E.02161
G1 X143.217 Y129.519 E.01898
G1 X143.579 Y129.278 E.01914
G1 X143.919 Y129.114 E.01665
G1 X144.297 Y128.994 E.01749
G1 X145.111 Y128.899 E.03611
G1 X204.935 Y128.899 E2.63662
G1 X205.42 Y128.936 E.02141
M73 P15 R3
G1 X205.88 Y129.042 E.02084
G1 X206.248 Y129.188 E.01743
G1 X206.607 Y129.393 E.01822
G1 X206.991 Y129.699 E.02164
G1 X207.281 Y130.018 E.01902
G1 X207.504 Y130.347 E.01748
G1 X207.684 Y130.717 E.01815
G1 X207.82 Y131.166 E.0207
G1 X207.901 Y131.909 E.03292
G1 X207.901 Y140.527 E.37983
G1 X207.867 Y141.075 E.0242
G1 X207.901 Y141.585 E.02254
G1 X207.901 Y150.227 E.38087
G1 X207.867 Y150.775 E.0242
G1 X207.901 Y151.285 E.02254
G1 X207.901 Y159.927 E.38087
G1 X207.867 Y160.475 E.0242
G1 X207.901 Y160.985 E.02254
G1 X207.901 Y169.627 E.38087
G1 X207.867 Y170.175 E.0242
G1 X207.901 Y170.685 E.02254
G1 X207.901 Y179.327 E.38087
G1 X207.867 Y179.875 E.0242
G1 X207.901 Y180.385 E.02254
G1 X207.901 Y189.027 E.38087
G1 X207.867 Y189.575 E.0242
M73 P16 R3
G1 X207.901 Y190.085 E.02254
G1 X207.901 Y198.727 E.38087
G1 X207.867 Y199.275 E.0242
G1 X207.901 Y199.785 E.02254
G1 X207.901 Y208.427 E.38087
G1 X207.867 Y208.975 E.0242
G1 X207.901 Y209.485 E.02254
G1 X207.901 Y218.127 E.38087
G1 X207.866 Y218.605 E.02111
G1 X207.774 Y219.029 E.01913
G1 X207.619 Y219.433 E.01908
G1 X207.407 Y219.808 E.01898
G1 X207.101 Y220.191 E.02161
G1 X206.783 Y220.481 E.01898
G1 X206.421 Y220.722 E.01914
G1 X206.081 Y220.886 E.01665
G1 X205.703 Y221.006 E.01749
G1 X204.889 Y221.101 E.03611
G1 X145.073 Y221.101 E2.63626
G1 X144.595 Y221.066 E.02111
M73 P17 R3
G1 X144.171 Y220.974 E.01913
G1 X143.767 Y220.819 E.01908
G1 X143.392 Y220.607 E.01898
G1 X143.009 Y220.301 E.02161
G1 X142.719 Y219.983 E.01898
G1 X142.478 Y219.621 E.01914
G1 X142.314 Y219.281 E.01665
G1 X142.194 Y218.903 E.01749
G1 X142.099 Y218.089 E.03611
G1 X142.099 Y133.389 E3.73297
G1 X142.545 Y133.389 F36000
M73 P18 R3
G1 F1800
G1 X142.545 Y131.894 E.06589
G1 X142.576 Y131.469 E.01878
G1 X142.653 Y131.109 E.01622
G1 X142.782 Y130.767 E.01613
G1 X142.959 Y130.452 E.0159
G1 X143.234 Y130.108 E.0194
G1 X143.501 Y129.866 E.01591
G1 X143.809 Y129.663 E.01625
G1 X144.093 Y129.527 E.01388
G1 X144.38 Y129.436 E.01325
G1 X145.145 Y129.345 E.03398
G1 X204.913 Y129.345 E2.63416
G1 X205.342 Y129.378 E.01895
M73 P19 R3
G1 X205.756 Y129.473 E.01875
G1 X206.063 Y129.596 E.01454
G1 X206.347 Y129.758 E.01442
G1 X206.692 Y130.033 E.01946
G1 X206.935 Y130.303 E.01599
G1 X207.12 Y130.579 E.01466
G1 X207.263 Y130.871 E.0143
G1 X207.382 Y131.268 E.0183
G1 X207.455 Y131.941 E.0298
G1 X207.455 Y140.509 E.37764
G1 X207.422 Y141.039 E.02341
G1 X207.455 Y141.605 E.02497
G1 X207.455 Y150.209 E.37922
G1 X207.422 Y150.739 E.02341
G1 X207.455 Y151.305 E.02497
G1 X207.455 Y159.909 E.37922
G1 X207.422 Y160.439 E.02341
G1 X207.455 Y161.005 E.02497
G1 X207.455 Y169.609 E.37922
G1 X207.422 Y170.139 E.02341
G1 X207.455 Y170.705 E.02497
G1 X207.455 Y179.309 E.37922
G1 X207.422 Y179.839 E.02341
G1 X207.455 Y180.405 E.02497
G1 X207.455 Y189.009 E.37922
G1 X207.422 Y189.539 E.02341
G1 X207.455 Y190.105 E.02497
G1 X207.455 Y198.709 E.37922
G1 X207.422 Y199.239 E.02341
M73 P20 R3
G1 X207.455 Y199.805 E.02497
G1 X207.455 Y208.409 E.37922
G1 X207.422 Y208.939 E.02341
G1 X207.455 Y209.505 E.02497
G1 X207.455 Y218.106 E.37908
G1 X207.424 Y218.531 E.01878
G1 X207.347 Y218.891 E.01622
G1 X207.218 Y219.233 E.01613
G1 X207.041 Y219.548 E.0159
G1 X206.766 Y219.892 E.0194
G1 X206.499 Y220.134 E.01591
G1 X206.191 Y220.337 E.01625
G1 X205.907 Y220.473 E.01388
G1 X205.62 Y220.564 E.01325
G1 X204.855 Y220.655 E.03398
G1 X145.094 Y220.655 E2.63384
G1 X144.669 Y220.624 E.01878
M73 P21 R3
G1 X144.309 Y220.547 E.01622
G1 X143.967 Y220.418 E.01613
G1 X143.652 Y220.241 E.0159
G1 X143.308 Y219.966 E.0194
G1 X143.066 Y219.699 E.01591
G1 X142.863 Y219.391 E.01625
G1 X142.727 Y219.107 E.01388
G1 X142.636 Y218.82 E.01325
G1 X142.545 Y218.055 E.03398
G1 X142.545 Y133.429 E3.72971
G1 X142.991 Y133.429 F36000
M73 P22 R3
G1 F1800
G1 X142.991 Y131.848 E.06971
G1 X143.085 Y131.279 E.02539
G1 X143.187 Y130.976 E.01408
G1 X143.335 Y130.701 E.01381
G1 X143.566 Y130.415 E.01618
G1 X143.895 Y130.15 E.01861
G1 X144.244 Y129.964 E.01744
G1 X144.56 Y129.864 E.01459
G1 X145.048 Y129.791 E.02176
G1 X204.952 Y129.791 E2.64016
G1 X205.517 Y129.884 E.02522
M73 P23 R3
G1 X205.906 Y130.028 E.01828
G1 X206.28 Y130.269 E.01961
G1 X206.458 Y130.44 E.01087
G1 X206.594 Y130.609 E.00959
G1 X206.882 Y131.173 E.02789
G1 X206.936 Y131.359 E.00853
G1 X207.009 Y131.848 E.02181
G1 X207.009 Y140.558 E.38389
G1 X206.938 Y141.033 E.02114
G1 X207.009 Y141.539 E.02252
G1 X207.009 Y150.258 E.3843
G1 X206.938 Y150.733 E.02114
G1 X207.009 Y151.239 E.02252
G1 X207.009 Y159.958 E.3843
G1 X206.938 Y160.433 E.02114
G1 X207.009 Y160.939 E.02252
G1 X207.009 Y169.658 E.3843
G1 X206.938 Y170.133 E.02114
G1 X207.009 Y170.639 E.02252
G1 X207.009 Y179.358 E.3843
G1 X206.938 Y179.833 E.02114
G1 X207.009 Y180.339 E.02252
G1 X207.009 Y189.058 E.3843
G1 X206.938 Y189.533 E.02114
G1 X207.009 Y190.039 E.02252
G1 X207.009 Y198.758 E.3843
G1 X206.938 Y199.233 E.02114
G1 X207.009 Y199.739 E.02252
G1 X207.009 Y208.458 E.3843
G1 X206.938 Y208.933 E.02114
M73 P24 R3
G1 X207.009 Y209.439 E.02252
G1 X207.009 Y218.152 E.38403
G1 X206.916 Y218.717 E.02522
G1 X206.772 Y219.106 E.01828
G1 X206.531 Y219.48 E.01961
G1 X206.36 Y219.658 E.01087
G1 X206.191 Y219.794 E.00959
G1 X205.627 Y220.082 E.02789
G1 X205.441 Y220.136 E.00853
G1 X204.952 Y220.209 E.02181
G1 X145.048 Y220.209 E2.64016
G1 X144.483 Y220.116 E.02522
G1 X144.094 Y219.972 E.01828
G1 X143.72 Y219.731 E.01961
G1 X143.542 Y219.56 E.01087
G1 X143.406 Y219.391 E.00959
G1 X143.118 Y218.827 E.02789
G1 X143.064 Y218.641 E.00853
G1 X142.991 Y218.152 E.02181
G1 X142.991 Y133.469 E3.73222
G1 X143.438 Y133.469 F36000
M73 P26 R3
G1 F1800
G1 X143.438 Y131.837 E.07195
G1 X143.525 Y131.349 E.02183
G1 X143.608 Y131.122 E.01064
G1 X143.727 Y130.914 E.01059
G1 X143.913 Y130.696 E.01261
G1 X144.171 Y130.501 E.01425
G1 X144.453 Y130.359 E.01392
G1 X144.623 Y130.306 E.00784
G1 X145.038 Y130.238 E.01855
G1 X204.963 Y130.238 E2.64108
G1 X205.449 Y130.325 E.02174
G1 X205.751 Y130.446 E.01434
G1 X205.972 Y130.591 E.01167
G1 X206.104 Y130.712 E.00789
G1 X206.254 Y130.899 E.01057
G1 X206.455 Y131.301 E.0198
G1 X206.495 Y131.423 E.00565
G1 X206.562 Y131.838 E.01853
G1 X206.562 Y140.568 E.38476
G1 X206.482 Y141.054 E.02167
G1 X206.562 Y141.529 E.02124
G1 X206.562 Y150.268 E.38518
G1 X206.482 Y150.754 E.02168
M73 P27 R3
G1 X206.562 Y151.229 E.02124
G1 X206.562 Y159.968 E.38518
G1 X206.482 Y160.454 E.02167
G1 X206.562 Y160.929 E.02124
G1 X206.562 Y169.668 E.38518
G1 X206.482 Y170.154 E.02167
G1 X206.562 Y170.629 E.02124
G1 X206.562 Y179.368 E.38518
G1 X206.482 Y179.854 E.02167
G1 X206.562 Y180.329 E.02124
G1 X206.562 Y189.068 E.38518
G1 X206.482 Y189.554 E.02167
G1 X206.562 Y190.029 E.02124
G1 X206.562 Y198.768 E.38518
G1 X206.482 Y199.254 E.02168
G1 X206.562 Y199.729 E.02124
G1 X206.562 Y208.468 E.38518
G1 X206.482 Y208.954 E.02167
G1 X206.562 Y209.429 E.02124
G1 X206.562 Y218.163 E.38496
G1 X206.475 Y218.649 E.02174
