; HEADER_BLOCK_START
; generated by OrcaSlicer 2.3.1 on 2025-10-23 at 10:09:28
; total layer number: 1
; filament_density: 1.24
; filament_diameter: 1.75
; max_z_height: 0.25
; HEADER_BLOCK_END

; THUMBNAIL_BLOCK_START

;
; THUMBNAIL_BLOCK_END

; THUMBNAIL_BLOCK_START

;
; THUMBNAIL_BLOCK_END

; THUMBNAIL_BLOCK_START

;
; THUMBNAIL_BLOCK_END

; external perimeters extrusion width = 0.40mm
; perimeters extrusion width = 0.42mm
; infill extrusion width = 0.45mm
; solid infill extrusion width = 0.45mm
; top infill extrusion width = 0.42mm
; first layer extrusion width = 0.50mm

; EXECUTABLE_BLOCK_START
EXCLUDE_OBJECT_DEFINE NAME=FirstLayerCalibration-FirstLayer.stl_id_0_copy_0 CENTER=175,175 POLYGON=[[145,131.8],[205,131.8],[205,218.2],[145,218.2],[145,131.8]]
M73 P0 R2
;TYPE:Custom
M104 S0
M140 S0
START_PRINT EXTRUDER_TEMP=235 BED_TEMP=55 MATERIAL=PLA
G90
G21
M83 ; use relative distances for extrusion
; Filament gcode
M106 S0
;LAYER_CHANGE
;Z:0.25
;HEIGHT:0.25
G92 E0
G1 E-.5 F1800
;_SET_FAN_SPEED_CHANGING_LAYER
SET_VELOCITY_LIMIT ACCEL=3000 ACCEL_TO_DECEL=1500
G1 Z.65 F36000
G1 X144.777 Y137.59
G1 Z.65
G1 Z.25
G1 E.5 F1800
;TYPE:Skirt
;WIDTH:0.5
G1 F3000
G1 X144.777 Y131.8 E.26324
G1 X145 Y131.577 E.01435
G1 X205 Y131.577 E2.72789
G1 X205.223 Y131.8 E.01435
M73 P1 R2
G1 X205.223 Y218.2 E3.92816
G1 X205 Y218.423 E.01435
M73 P2 R2
G1 X145 Y218.423 E2.72789
G1 X144.777 Y218.2 E.01435
M73 P3 R2
G1 X144.777 Y137.63 E3.6631
; printing object FirstLayerCalibration-FirstLayer.stl id:0 copy 0
;WIPE_START
G1 X144.777 Y135.63 E-.5
M73 P4 R2
;WIPE_END
EXCLUDE_OBJECT_START NAME=FirstLayerCalibration-FirstLayer.stl_id_0_copy_0
G1 Z.65 F36000
G1 X194.65 Y151.55 Z.65
G1 Z.25
G1 E.5 F1800
;TYPE:Outer wall
G1 X204.65 Y151.55 E.45465
G1 X204.65 Y159.65 E.36826
G1 X194.65 Y159.65 E.45465
G1 X194.65 Y161.25 E.07274
G1 X204.65 Y161.25 E.45465
M73 P5 R2
G1 X204.65 Y169.35 E.36826
G1 X194.65 Y169.35 E.45465
G1 X194.65 Y170.95 E.07274
G1 X204.65 Y170.95 E.45465
G1 X204.65 Y179.05 E.36826
G1 X194.65 Y179.05 E.45465
M73 P6 R2
G1 X194.65 Y180.65 E.07274
G1 X204.65 Y180.65 E.45465
G1 X204.65 Y188.75 E.36826
G1 X194.65 Y188.75 E.45465
G1 X194.65 Y190.35 E.07274
G1 X204.65 Y190.35 E.45465
G1 X204.65 Y198.45 E.36826
M73 P7 R2
G1 X194.65 Y198.45 E.45465
G1 X194.65 Y200.05 E.07274
G1 X204.65 Y200.05 E.45465
G1 X204.65 Y208.15 E.36826
G1 X194.65 Y208.15 E.45465
G1 X194.65 Y209.75 E.07274
M73 P8 R2
G1 X204.65 Y209.75 E.45465
G1 X204.65 Y217.85 E.36826
G1 X145.35 Y217.85 E2.69606
G1 X145.35 Y132.15 E3.89633
M73 P9 R2
G1 X204.65 Y132.15 E2.69606
M73 P11 R2
G1 X204.65 Y140.25 E.36826
M73 P12 R2
G1 X194.65 Y140.25 E.45465
G1 X194.65 Y141.85 E.07274
M73 P13 R2
G1 X204.65 Y141.85 E.45465
G1 X204.65 Y149.95 E.36826
G1 X194.65 Y149.95 E.45465
G1 X194.65 Y151.53 E.07183
G1 X194.204 Y151.996 F36000
;TYPE:Inner wall
G1 F1800
G1 X204.204 Y151.996 E.45465
G1 X204.204 Y159.204 E.32768
M73 P14 R2
G1 X194.204 Y159.204 E.45465
G1 X194.204 Y161.696 E.11333
G1 X204.204 Y161.696 E.45465
G1 X204.204 Y168.904 E.32768
G1 X194.204 Y168.904 E.45465
G1 X194.204 Y171.396 E.11333
M73 P15 R2
G1 X204.204 Y171.396 E.45465
G1 X204.204 Y178.604 E.32768
G1 X194.204 Y178.604 E.45465
G1 X194.204 Y181.096 E.11333
G1 X204.204 Y181.096 E.45465
G1 X204.204 Y188.304 E.32768
G1 X194.204 Y188.304 E.45465
M73 P16 R2
G1 X194.204 Y190.796 E.11333
G1 X204.204 Y190.796 E.45465
G1 X204.204 Y198.004 E.32768
G1 X194.204 Y198.004 E.45465
G1 X194.204 Y200.496 E.11333
G1 X204.204 Y200.496 E.45465
G1 X204.204 Y207.704 E.32768
M73 P17 R2
G1 X194.204 Y207.704 E.45465
G1 X194.204 Y210.196 E.11333
G1 X204.204 Y210.196 E.45465
G1 X204.204 Y217.404 E.32768
G1 X145.796 Y217.404 E2.65548
G1 X145.796 Y132.596 E3.85575
M73 P19 R2
G1 X204.204 Y132.596 E2.65548
M73 P20 R2
G1 X204.204 Y139.804 E.32768
M73 P22 R2
G1 X194.204 Y139.804 E.45465
G1 X194.204 Y142.296 E.11333
G1 X204.204 Y142.296 E.45465
G1 X204.204 Y149.504 E.32768
G1 X194.204 Y149.504 E.45465
G1 X194.204 Y151.976 E.11242
M73 P23 R2
;WIPE_START
G1 X196.204 Y151.98 E-.5
;WIPE_END
G1 Z.65 F36000
G1 X145.93 Y132.932 Z.65
G1 Z.25
G1 E.5 F1800
;TYPE:Bottom surface
;WIDTH:0.501185
G1 F5400
G1 X203.869 Y132.932 E2.64116
G1 X203.869 Y133.379 E.0204
G1 X146.131 Y133.379 E2.63201
G1 X146.131 Y133.827 E.0204
M73 P24 R2
G1 X203.869 Y133.827 E2.63201
G1 X203.869 Y134.274 E.0204
G1 X146.131 Y134.274 E2.63201
G1 X146.131 Y134.722 E.0204
M73 P25 R1
G1 X203.869 Y134.722 E2.63201
G1 X203.869 Y135.169 E.0204
G1 X146.131 Y135.169 E2.63201
G1 X146.131 Y135.617 E.0204
G1 X203.869 Y135.617 E2.63201
M73 P26 R1
G1 X203.869 Y136.065 E.0204
G1 X146.131 Y136.065 E2.63201
G1 X146.131 Y136.512 E.0204
G1 X203.869 Y136.512 E2.63201
G1 X203.869 Y136.96 E.0204
M73 P27 R1
G1 X146.131 Y136.96 E2.63201
G1 X146.131 Y137.407 E.0204
G1 X203.869 Y137.407 E2.63201
G1 X203.869 Y137.855 E.0204
M73 P28 R1
G1 X146.131 Y137.855 E2.63201
G1 X146.131 Y138.302 E.0204
G1 X203.869 Y138.302 E2.63201
G1 X203.869 Y138.75 E.0204
G1 X146.131 Y138.75 E2.63201
G1 X146.131 Y139.197 E.0204
M73 P29 R1
G1 X203.869 Y139.197 E2.63201
G1 X203.869 Y139.469 E.01238
G1 X193.869 Y139.469 E.45586
G1 X193.869 Y139.645 E.00802
G1 X146.131 Y139.645 E2.17615
G1 X146.131 Y140.092 E.0204
M73 P30 R1
G1 X193.869 Y140.092 E2.17615
G1 X193.869 Y140.54 E.0204
G1 X146.131 Y140.54 E2.17615
G1 X146.131 Y140.987 E.0204
G1 X193.869 Y140.987 E2.17615
G1 X193.869 Y141.435 E.0204
M73 P31 R1
G1 X146.131 Y141.435 E2.17615
G1 X146.131 Y141.882 E.0204
G1 X193.869 Y141.882 E2.17615
G1 X193.869 Y142.33 E.0204
M73 P32 R1
G1 X146.131 Y142.33 E2.17615
G1 X146.131 Y142.778 E.0204
G1 X203.869 Y142.778 E2.63201
G1 X203.869 Y143.225 E.0204
G1 X146.131 Y143.225 E2.63201
G1 X146.131 Y143.673 E.0204
M73 P33 R1
G1 X203.869 Y143.673 E2.63201
G1 X203.869 Y144.12 E.0204
G1 X146.131 Y144.12 E2.63201
G1 X146.131 Y144.568 E.0204
M73 P34 R1
G1 X203.869 Y144.568 E2.63201
G1 X203.869 Y145.015 E.0204
G1 X146.131 Y145.015 E2.63201
G1 X146.131 Y145.463 E.0204
G1 X203.869 Y145.463 E2.63201
G1 X203.869 Y145.91 E.0204
M73 P35 R1
G1 X146.131 Y145.91 E2.63201
G1 X146.131 Y146.358 E.0204
G1 X203.869 Y146.358 E2.63201
G1 X203.869 Y146.805 E.0204
M73 P36 R1
G1 X146.131 Y146.805 E2.63201
G1 X146.131 Y147.253 E.0204
G1 X203.869 Y147.253 E2.63201
G1 X203.869 Y147.7 E.0204
M73 P37 R1
G1 X146.131 Y147.7 E2.63201
G1 X146.131 Y148.148 E.0204
G1 X203.869 Y148.148 E2.63201
G1 X203.869 Y148.595 E.0204
G1 X146.131 Y148.595 E2.63201
G1 X146.131 Y149.043 E.0204
M73 P38 R1
G1 X203.869 Y149.043 E2.63201
G1 X203.869 Y149.169 E.00574
G1 X193.869 Y149.169 E.45586
G1 X193.869 Y149.491 E.01466
G1 X146.131 Y149.491 E2.17615
G1 X146.131 Y149.938 E.0204
M73 P39 R1
G1 X193.869 Y149.938 E2.17615
G1 X193.869 Y150.386 E.0204
G1 X146.131 Y150.386 E2.17615
G1 X146.131 Y150.833 E.0204
G1 X193.869 Y150.833 E2.17615
G1 X193.869 Y151.281 E.0204
M73 P40 R1
G1 X146.131 Y151.281 E2.17615
G1 X146.131 Y151.728 E.0204
G1 X193.869 Y151.728 E2.17615
G1 X193.869 Y152.176 E.0204
G1 X146.131 Y152.176 E2.17615
G1 X146.131 Y152.623 E.0204
M73 P41 R1
G1 X203.869 Y152.623 E2.63201
G1 X203.869 Y153.071 E.0204
G1 X146.131 Y153.071 E2.63201
G1 X146.131 Y153.518 E.0204
M73 P42 R1
G1 X203.869 Y153.518 E2.63201
G1 X203.869 Y153.966 E.0204
G1 X146.131 Y153.966 E2.63201
G1 X146.131 Y154.413 E.0204
G1 X203.869 Y154.413 E2.63201
G1 X203.869 Y154.861 E.0204
M73 P43 R1
G1 X146.131 Y154.861 E2.63201
G1 X146.131 Y155.309 E.0204
G1 X203.869 Y155.309 E2.63201
G1 X203.869 Y155.756 E.0204
M73 P44 R1
G1 X146.131 Y155.756 E2.63201
G1 X146.131 Y156.204 E.0204
G1 X203.869 Y156.204 E2.63201
G1 X203.869 Y156.651 E.0204
M73 P45 R1
G1 X146.131 Y156.651 E2.63201
G1 X146.131 Y157.099 E.0204
G1 X203.869 Y157.099 E2.63201
G1 X203.869 Y157.546 E.0204
G1 X146.131 Y157.546 E2.63201
G1 X146.131 Y157.994 E.0204
M73 P46 R1
G1 X203.869 Y157.994 E2.63201
G1 X203.869 Y158.441 E.0204
G1 X146.131 Y158.441 E2.63201
G1 X146.131 Y158.889 E.0204
M73 P47 R1
G1 X193.869 Y158.889 E2.17615
G1 X193.869 Y159.336 E.0204
G1 X146.131 Y159.336 E2.17615
G1 X146.131 Y159.784 E.0204
G1 X193.869 Y159.784 E2.17615
G1 X193.869 Y160.231 E.0204
M73 P48 R1
G1 X146.131 Y160.231 E2.17615
G1 X146.131 Y160.679 E.0204
G1 X193.869 Y160.679 E2.17615
G1 X193.869 Y161.126 E.0204
G1 X146.131 Y161.126 E2.17615
G1 X146.131 Y161.574 E.0204
M73 P49 R1
G1 X193.869 Y161.574 E2.17615
G1 X193.869 Y162.022 E.0204
G1 X146.131 Y162.022 E2.17615
G1 X146.131 Y162.469 E.0204
G1 X203.869 Y162.469 E2.63201
M73 P50 R1
G1 X203.869 Y162.917 E.0204
G1 X146.131 Y162.917 E2.63201
G1 X146.131 Y163.364 E.0204
G1 X203.869 Y163.364 E2.63201
G1 X203.869 Y163.812 E.0204
M73 P51 R1
G1 X146.131 Y163.812 E2.63201
G1 X146.131 Y164.259 E.0204
G1 X203.869 Y164.259 E2.63201
G1 X203.869 Y164.707 E.0204
M73 P52 R1
G1 X146.131 Y164.707 E2.63201
G1 X146.131 Y165.154 E.0204
G1 X203.869 Y165.154 E2.63201
G1 X203.869 Y165.602 E.0204
G1 X146.131 Y165.602 E2.63201
G1 X146.131 Y166.049 E.0204
M73 P53 R1
G1 X203.869 Y166.049 E2.63201
G1 X203.869 Y166.497 E.0204
G1 X146.131 Y166.497 E2.63201
G1 X146.131 Y166.944 E.0204
M73 P54 R1
G1 X203.869 Y166.944 E2.63201
G1 X203.869 Y167.392 E.0204
G1 X146.131 Y167.392 E2.63201
G1 X146.131 Y167.839 E.0204
M73 P55 R1
G1 X203.869 Y167.839 E2.63201
G1 X203.869 Y168.287 E.0204
G1 X146.131 Y168.287 E2.63201
G1 X146.131 Y168.735 E.0204
G1 X193.869 Y168.735 E2.17615
G1 X193.869 Y169.182 E.0204
M73 P56 R1
G1 X146.131 Y169.182 E2.17615
G1 X146.131 Y169.63 E.0204
G1 X193.869 Y169.63 E2.17615
G1 X193.869 Y170.077 E.0204
G1 X146.131 Y170.077 E2.17615
G1 X146.131 Y170.525 E.0204
M73 P57 R1
G1 X193.869 Y170.525 E2.17615
G1 X193.869 Y170.972 E.0204
G1 X146.131 Y170.972 E2.17615
G1 X146.131 Y171.42 E.0204
M73 P58 R1
G1 X193.869 Y171.42 E2.17615
G1 X193.869 Y171.731 E.01419
G1 X203.869 Y171.731 E.45586
G1 X203.869 Y171.867 E.00621
G1 X146.131 Y171.867 E2.63201
G1 X146.131 Y172.315 E.0204
G1 X203.869 Y172.315 E2.63201
G1 X203.869 Y172.762 E.0204
M73 P59 R1
G1 X146.131 Y172.762 E2.63201
G1 X146.131 Y173.21 E.0204
G1 X203.869 Y173.21 E2.63201
G1 X203.869 Y173.657 E.0204
M73 P60 R1
G1 X146.131 Y173.657 E2.63201
G1 X146.131 Y174.105 E.0204
G1 X203.869 Y174.105 E2.63201
G1 X203.869 Y174.553 E.0204
M73 P61 R1
G1 X146.131 Y174.553 E2.63201
G1 X146.131 Y175 E.0204
G1 X203.869 Y175 E2.63201
G1 X203.869 Y175.448 E.0204
G1 X146.131 Y175.448 E2.63201
G1 X146.131 Y175.895 E.0204
M73 P62 R1
G1 X203.869 Y175.895 E2.63201
G1 X203.869 Y176.343 E.0204
M73 P62 R0
G1 X146.131 Y176.343 E2.63201
G1 X146.131 Y176.79 E.0204
M73 P63 R0
G1 X203.869 Y176.79 E2.63201
G1 X203.869 Y177.238 E.0204
G1 X146.131 Y177.238 E2.63201
G1 X146.131 Y177.685 E.0204
G1 X203.869 Y177.685 E2.63201
G1 X203.869 Y178.133 E.0204
M73 P64 R0
G1 X146.131 Y178.133 E2.63201
G1 X146.131 Y178.58 E.0204
G1 X193.869 Y178.58 E2.17615
G1 X193.869 Y179.028 E.0204
M73 P65 R0
G1 X146.131 Y179.028 E2.17615
G1 X146.131 Y179.475 E.0204
G1 X193.869 Y179.475 E2.17615
G1 X193.869 Y179.923 E.0204
G1 X146.131 Y179.923 E2.17615
G1 X146.131 Y180.37 E.0204
M73 P66 R0
G1 X193.869 Y180.37 E2.17615
G1 X193.869 Y180.818 E.0204
G1 X146.131 Y180.818 E2.17615
G1 X146.131 Y181.266 E.0204
G1 X193.869 Y181.266 E2.17615
G1 X193.869 Y181.431 E.00755
M73 P67 R0
G1 X203.869 Y181.431 E.45586
G1 X203.869 Y181.713 E.01285
G1 X146.131 Y181.713 E2.63201
G1 X146.131 Y182.161 E.0204
G1 X203.869 Y182.161 E2.63201
G1 X203.869 Y182.608 E.0204
M73 P68 R0
G1 X146.131 Y182.608 E2.63201
G1 X146.131 Y183.056 E.0204
G1 X203.869 Y183.056 E2.63201
G1 X203.869 Y183.503 E.0204
M73 P69 R0
G1 X146.131 Y183.503 E2.63201
G1 X146.131 Y183.951 E.0204
G1 X203.869 Y183.951 E2.63201
G1 X203.869 Y184.398 E.0204
G1 X146.131 Y184.398 E2.63201
G1 X146.131 Y184.846 E.0204
M73 P70 R0
G1 X203.869 Y184.846 E2.63201
G1 X203.869 Y185.293 E.0204
G1 X146.131 Y185.293 E2.63201
G1 X146.131 Y185.741 E.0204
M73 P71 R0
G1 X203.869 Y185.741 E2.63201
G1 X203.869 Y186.188 E.0204
G1 X146.131 Y186.188 E2.63201
G1 X146.131 Y186.636 E.0204
M73 P72 R0
G1 X203.869 Y186.636 E2.63201
G1 X203.869 Y187.084 E.0204
G1 X146.131 Y187.083 E2.63201
G1 X146.131 Y187.531 E.0204
G1 X203.869 Y187.531 E2.63201
G1 X203.869 Y187.969 E.01996
M73 P73 R0
G1 X146.131 Y187.979 E2.63201
G1 X146.131 Y188.426 E.0204
G1 X193.869 Y188.426 E2.17615
G1 X193.869 Y188.874 E.0204
M73 P74 R0
G1 X146.131 Y188.874 E2.17615
G1 X146.131 Y189.321 E.0204
G1 X193.869 Y189.321 E2.17615
G1 X193.869 Y189.769 E.0204
G1 X146.131 Y189.769 E2.17615
G1 X146.131 Y190.216 E.0204
M73 P75 R0
G1 X193.869 Y190.216 E2.17615
G1 X193.869 Y190.664 E.0204
G1 X146.131 Y190.664 E2.17615
G1 X146.131 Y191.111 E.0204
G1 X193.869 Y191.111 E2.17615
G1 X193.869 Y191.131 E.0009
M73 P76 R0
G1 X203.869 Y191.131 E.45586
G1 X203.869 Y191.559 E.0195
G1 X146.131 Y191.559 E2.63201
G1 X146.131 Y192.006 E.0204
G1 X203.869 Y192.006 E2.63201
G1 X203.869 Y192.454 E.0204
M73 P77 R0
G1 X146.131 Y192.454 E2.63201
G1 X146.131 Y192.901 E.0204
G1 X203.869 Y192.901 E2.63201
G1 X203.869 Y193.349 E.0204
G1 X146.131 Y193.349 E2.63201
G1 X146.131 Y193.797 E.0204
M73 P78 R0
G1 X203.869 Y193.797 E2.63201
G1 X203.869 Y194.244 E.0204
G1 X146.131 Y194.244 E2.63201
G1 X146.131 Y194.692 E.0204
M73 P79 R0
G1 X203.869 Y194.692 E2.63201
G1 X203.869 Y195.139 E.0204
G1 X146.131 Y195.139 E2.63201
G1 X146.131 Y195.587 E.0204
M73 P80 R0
G1 X203.869 Y195.587 E2.63201
G1 X203.869 Y196.034 E.0204
G1 X146.131 Y196.034 E2.63201
G1 X146.131 Y196.482 E.0204
G1 X203.869 Y196.482 E2.63201
G1 X203.869 Y196.929 E.0204
M73 P81 R0
G1 X146.131 Y196.929 E2.63201
G1 X146.131 Y197.377 E.0204
G1 X203.869 Y197.377 E2.63201
G1 X203.869 Y197.669 E.01331
M73 P82 R0
G1 X193.869 Y197.669 E.45586
G1 X193.869 Y197.824 E.00709
G1 X146.131 Y197.824 E2.17615
G1 X146.131 Y198.272 E.0204
G1 X193.869 Y198.272 E2.17615
G1 X193.869 Y198.719 E.0204
G1 X146.131 Y198.719 E2.17615
G1 X146.131 Y199.167 E.0204
M73 P83 R0
G1 X193.869 Y199.167 E2.17615
G1 X193.869 Y199.614 E.0204
G1 X146.131 Y199.614 E2.17615
G1 X146.131 Y200.062 E.0204
M73 P84 R0
G1 X193.869 Y200.062 E2.17615
G1 X193.869 Y200.51 E.0204
G1 X146.131 Y200.51 E2.17615
G1 X146.131 Y200.957 E.0204
G1 X203.869 Y200.957 E2.63201
G1 X203.869 Y201.405 E.0204
M73 P85 R0
G1 X146.131 Y201.405 E2.63201
G1 X146.131 Y201.852 E.0204
G1 X203.869 Y201.852 E2.63201
G1 X203.869 Y202.3 E.0204
G1 X146.131 Y202.3 E2.63201
M73 P86 R0
G1 X146.131 Y202.747 E.0204
G1 X203.869 Y202.747 E2.63201
G1 X203.869 Y203.195 E.0204
G1 X146.131 Y203.195 E2.63201
G1 X146.131 Y203.642 E.0204
M73 P87 R0
G1 X203.869 Y203.642 E2.63201
G1 X203.869 Y204.09 E.0204
G1 X146.131 Y204.09 E2.63201
G1 X146.131 Y204.537 E.0204
M73 P88 R0
G1 X203.869 Y204.537 E2.63201
G1 X203.869 Y204.985 E.0204
G1 X146.131 Y204.985 E2.63201
G1 X146.131 Y205.432 E.0204
G1 X203.869 Y205.432 E2.63201
G1 X203.869 Y205.88 E.0204
M73 P89 R0
G1 X146.131 Y205.88 E2.63201
G1 X146.131 Y206.328 E.0204
G1 X203.869 Y206.328 E2.63201
G1 X203.869 Y206.775 E.0204
M73 P90 R0
G1 X146.131 Y206.775 E2.63201
G1 X146.131 Y207.223 E.0204
G1 X203.869 Y207.223 E2.63201
G1 X203.869 Y207.369 E.00667
M73 P91 R0
G1 X193.869 Y207.369 E.45586
G1 X193.869 Y207.67 E.01373
G1 X146.131 Y207.67 E2.17615
G1 X146.131 Y208.118 E.0204
G1 X193.869 Y208.118 E2.17615
G1 X193.869 Y208.565 E.0204
G1 X146.131 Y208.565 E2.17615
G1 X146.131 Y209.013 E.0204
M73 P92 R0
G1 X193.869 Y209.013 E2.17615
G1 X193.869 Y209.46 E.0204
G1 X146.131 Y209.46 E2.17615
G1 X146.131 Y209.908 E.0204
G1 X193.869 Y209.908 E2.17615
G1 X193.869 Y210.355 E.0204
M73 P93 R0
G1 X146.131 Y210.355 E2.17615
G1 X146.131 Y210.803 E.0204
G1 X203.869 Y210.803 E2.63201
G1 X203.869 Y211.25 E.0204
M73 P94 R0
G1 X146.131 Y211.25 E2.63201
G1 X146.131 Y211.698 E.0204
G1 X203.869 Y211.698 E2.63201
G1 X203.869 Y212.145 E.0204
G1 X146.131 Y212.145 E2.63201
G1 X146.131 Y212.593 E.0204
M73 P95 R0
G1 X203.869 Y212.593 E2.63201
G1 X203.869 Y213.041 E.0204
G1 X146.131 Y213.041 E2.63201
G1 X146.131 Y213.488 E.0204
M73 P96 R0
G1 X203.869 Y213.488 E2.63201
G1 X203.869 Y213.936 E.0204
G1 X146.131 Y213.936 E2.63201
G1 X146.131 Y214.383 E.0204
M73 P97 R0
G1 X203.869 Y214.383 E2.63201
G1 X203.869 Y214.831 E.0204
G1 X146.131 Y214.831 E2.63201
G1 X146.131 Y215.278 E.0204
