; HEADER_BLOCK_START
; generated by OrcaSlicer 2.3.1 on 2025-10-21 at 07:03:09
; total layer number: 10
; filament_density: 1.24
; filament_diameter: 1.75
; max_z_height: 2.05
; HEADER_BLOCK_END

; THUMBNAIL_BLOCK_START

;
; THUMBNAIL_BLOCK_END

; THUMBNAIL_BLOCK_START

;
; THUMBNAIL_BLOCK_END

; THUMBNAIL_BLOCK_START

;
; THUMBNAIL_BLOCK_END

; external perimeters extrusion width = 0.40mm
; perimeters extrusion width = 0.42mm
; infill extrusion width = 0.45mm
; solid infill extrusion width = 0.48mm
; top infill extrusion width = 0.48mm
; first layer extrusion width = 0.50mm

; external perimeters extrusion width = 0.40mm
; perimeters extrusion width = 0.42mm
; infill extrusion width = 0.45mm
; solid infill extrusion width = 0.48mm
; top infill extrusion width = 0.48mm
; first layer extrusion width = 0.50mm

; external perimeters extrusion width = 0.40mm
; perimeters extrusion width = 0.42mm
; infill extrusion width = 0.45mm
; solid infill extrusion width = 0.48mm
; top infill extrusion width = 0.48mm
; first layer extrusion width = 0.50mm

; external perimeters extrusion width = 0.40mm
; perimeters extrusion width = 0.42mm
; infill extrusion width = 0.45mm
; solid infill extrusion width = 0.48mm
; top infill extrusion width = 0.48mm
; first layer extrusion width = 0.50mm

; external perimeters extrusion width = 0.40mm
; perimeters extrusion width = 0.42mm
; infill extrusion width = 0.45mm
; solid infill extrusion width = 0.48mm
; top infill extrusion width = 0.48mm
; first layer extrusion width = 0.50mm

; external perimeters extrusion width = 0.40mm
; perimeters extrusion width = 0.42mm
; infill extrusion width = 0.45mm
; solid infill extrusion width = 0.48mm
; top infill extrusion width = 0.48mm
; first layer extrusion width = 0.50mm

; external perimeters extrusion width = 0.40mm
; perimeters extrusion width = 0.42mm
; infill extrusion width = 0.45mm
; solid infill extrusion width = 0.48mm
; top infill extrusion width = 0.48mm
; first layer extrusion width = 0.50mm

; external perimeters extrusion width = 0.40mm
; perimeters extrusion width = 0.42mm
; infill extrusion width = 0.45mm
; solid infill extrusion width = 0.48mm
; top infill extrusion width = 0.48mm
; first layer extrusion width = 0.50mm

; external perimeters extrusion width = 0.40mm
; perimeters extrusion width = 0.42mm
; infill extrusion width = 0.45mm
; solid infill extrusion width = 0.48mm
; top infill extrusion width = 0.48mm
; first layer extrusion width = 0.50mm

; external perimeters extrusion width = 0.40mm
; perimeters extrusion width = 0.42mm
; infill extrusion width = 0.45mm
; solid infill extrusion width = 0.48mm
; top infill extrusion width = 0.48mm
; first layer extrusion width = 0.50mm

; external perimeters extrusion width = 0.40mm
; perimeters extrusion width = 0.42mm
; infill extrusion width = 0.45mm
; solid infill extrusion width = 0.48mm
; top infill extrusion width = 0.48mm
; first layer extrusion width = 0.50mm

; EXECUTABLE_BLOCK_START
EXCLUDE_OBJECT_DEFINE NAME=flowrate_0_id_0_copy_0 CENTER=159.5,175 POLYGON=[[144.5,161.5],[144.523,161.24],[144.59,160.987],[144.701,160.75],[144.851,160.536],[145.036,160.351],[145.25,160.201],[145.487,160.09],[145.74,160.023],[146,160],[173,160],[173.26,160.023],[173.513,160.09],[173.75,160.201],[173.964,160.351],[174.149,160.536],[174.299,160.75],[174.41,160.987],[174.477,161.24],[174.5,161.5],[174.5,178.5],[174.477,178.76],[174.41,179.013],[174.299,179.25],[169.299,189.25],[169.149,189.464],[168.964,189.649],[168.75,189.799],[168.513,189.91],[168.26,189.977],[168,190],[151,190],[150.74,189.977],[150.487,189.91],[150.25,189.799],[150.036,189.649],[149.851,189.464],[149.701,189.25],[144.701,179.25],[144.59,179.013],[144.523,178.76],[144.5,178.5],[144.5,161.5]]
EXCLUDE_OBJECT_DEFINE NAME=flowrate_0.01_id_1_copy_0 CENTER=128.5,175 POLYGON=[[113.5,161.5],[113.523,161.24],[113.59,160.987],[113.701,160.75],[113.851,160.536],[114.036,160.351],[114.25,160.201],[114.487,160.09],[114.74,160.023],[115,160],[142,160],[142.26,160.023],[142.513,160.09],[142.75,160.201],[142.964,160.351],[143.149,160.536],[143.299,160.75],[143.41,160.987],[143.477,161.24],[143.5,161.5],[143.5,178.5],[143.477,178.76],[143.41,179.013],[143.299,179.25],[138.299,189.25],[138.149,189.464],[137.964,189.649],[137.75,189.799],[137.513,189.91],[137.26,189.977],[137,190],[120,190],[119.74,189.977],[119.487,189.91],[119.25,189.799],[119.036,189.649],[118.851,189.464],[118.701,189.25],[113.701,179.25],[113.59,179.013],[113.523,178.76],[113.5,178.5],[113.5,161.5]]
EXCLUDE_OBJECT_DEFINE NAME=flowrate_0.02_id_2_copy_0 CENTER=128.5,207 POLYGON=[[113.5,193.5],[113.523,193.24],[113.59,192.987],[113.701,192.75],[113.851,192.536],[114.036,192.351],[114.25,192.201],[114.487,192.09],[114.74,192.023],[115,192],[142,192],[142.26,192.023],[142.513,192.09],[142.75,192.201],[142.964,192.351],[143.149,192.536],[143.299,192.75],[143.41,192.987],[143.477,193.24],[143.5,193.5],[143.5,210.5],[143.477,210.76],[143.41,211.013],[143.299,211.25],[138.299,221.25],[138.149,221.464],[137.964,221.649],[137.75,221.799],[137.513,221.91],[137.26,221.977],[137,222],[120,222],[119.74,221.977],[119.487,221.91],[119.25,221.799],[119.036,221.649],[118.851,221.464],[118.701,221.25],[113.701,211.25],[113.59,211.013],[113.523,210.76],[113.5,210.5],[113.5,193.5]]
EXCLUDE_OBJECT_DEFINE NAME=flowrate_0.03_id_3_copy_0 CENTER=159.5,207 POLYGON=[[144.5,193.5],[144.523,193.24],[144.59,192.987],[144.701,192.75],[144.851,192.536],[145.036,192.351],[145.25,192.201],[145.487,192.09],[145.74,192.023],[146,192],[173,192],[173.26,192.023],[173.513,192.09],[173.75,192.201],[173.964,192.351],[174.149,192.536],[174.299,192.75],[174.41,192.987],[174.477,193.24],[174.5,193.5],[174.5,210.5],[174.477,210.76],[174.41,211.013],[174.299,211.25],[169.299,221.25],[169.149,221.464],[168.964,221.649],[168.75,221.799],[168.513,221.91],[168.26,221.977],[168,222],[151,222],[150.74,221.977],[150.487,221.91],[150.25,221.799],[150.036,221.649],[149.851,221.464],[149.701,221.25],[144.701,211.25],[144.59,211.013],[144.523,210.76],[144.5,210.5],[144.5,193.5]]
EXCLUDE_OBJECT_DEFINE NAME=flowrate_0.04_id_4_copy_0 CENTER=190.5,207 POLYGON=[[175.5,193.5],[175.523,193.24],[175.59,192.987],[175.701,192.75],[175.851,192.536],[176.036,192.351],[176.25,192.201],[176.487,192.09],[176.74,192.023],[177,192],[204,192],[204.26,192.023],[204.513,192.09],[204.75,192.201],[204.964,192.351],[205.149,192.536],[205.299,192.75],[205.41,192.987],[205.477,193.24],[205.5,193.5],[205.5,210.5],[205.477,210.76],[205.41,211.013],[205.299,211.25],[200.299,221.25],[200.149,221.464],[199.964,221.649],[199.75,221.799],[199.513,221.91],[199.26,221.977],[199,222],[182,222],[181.74,221.977],[181.487,221.91],[181.25,221.799],[181.036,221.649],[180.851,221.464],[180.701,221.25],[175.701,211.25],[175.59,211.013],[175.523,210.76],[175.5,210.5],[175.5,193.5]]
EXCLUDE_OBJECT_DEFINE NAME=flowrate_0.05_id_5_copy_0 CENTER=221.5,207 POLYGON=[[206.5,193.5],[206.523,193.24],[206.59,192.987],[206.701,192.75],[206.851,192.536],[207.036,192.351],[207.25,192.201],[207.487,192.09],[207.74,192.023],[208,192],[235,192],[235.26,192.023],[235.513,192.09],[235.75,192.201],[235.964,192.351],[236.149,192.536],[236.299,192.75],[236.41,192.987],[236.477,193.24],[236.5,193.5],[236.5,210.5],[236.477,210.76],[236.41,211.013],[236.299,211.25],[231.299,221.25],[231.149,221.464],[230.964,221.649],[230.75,221.799],[230.513,221.91],[230.26,221.977],[230,222],[213,222],[212.74,221.977],[212.487,221.91],[212.25,221.799],[212.036,221.649],[211.851,221.464],[211.701,221.25],[206.701,211.25],[206.59,211.013],[206.523,210.76],[206.5,210.5],[206.5,193.5]]
EXCLUDE_OBJECT_DEFINE NAME=flowrate_m0.01_id_6_copy_0 CENTER=190.5,175 POLYGON=[[175.5,161.5],[175.523,161.24],[175.59,160.987],[175.701,160.75],[175.851,160.536],[176.036,160.351],[176.25,160.201],[176.487,160.09],[176.74,160.023],[177,160],[204,160],[204.26,160.023],[204.513,160.09],[204.75,160.201],[204.964,160.351],[205.149,160.536],[205.299,160.75],[205.41,160.987],[205.477,161.24],[205.5,161.5],[205.5,178.5],[205.477,178.76],[205.41,179.013],[205.299,179.25],[200.299,189.25],[200.149,189.464],[199.964,189.649],[199.75,189.799],[199.513,189.91],[199.26,189.977],[199,190],[182,190],[181.74,189.977],[181.487,189.91],[181.25,189.799],[181.036,189.649],[180.851,189.464],[180.701,189.25],[175.701,179.25],[175.59,179.013],[175.523,178.76],[175.5,178.5],[175.5,161.5]]
EXCLUDE_OBJECT_DEFINE NAME=flowrate_m0.02_id_7_copy_0 CENTER=221.5,175 POLYGON=[[206.5,161.5],[206.523,161.24],[206.59,160.987],[206.701,160.75],[206.851,160.536],[207.036,160.351],[207.25,160.201],[207.487,160.09],[207.74,160.023],[208,160],[235,160],[235.26,160.023],[235.513,160.09],[235.75,160.201],[235.964,160.351],[236.149,160.536],[236.299,160.75],[236.41,160.987],[236.477,161.24],[236.5,161.5],[236.5,178.5],[236.477,178.76],[236.41,179.013],[236.299,179.25],[231.299,189.25],[231.149,189.464],[230.964,189.649],[230.75,189.799],[230.513,189.91],[230.26,189.977],[230,190],[213,190],[212.74,189.977],[212.487,189.91],[212.25,189.799],[212.036,189.649],[211.851,189.464],[211.701,189.25],[206.701,179.25],[206.59,179.013],[206.523,178.76],[206.5,178.5],[206.5,161.5]]
EXCLUDE_OBJECT_DEFINE NAME=flowrate_m0.03_id_8_copy_0 CENTER=221.5,143 POLYGON=[[206.5,129.5],[206.523,129.24],[206.59,128.987],[206.701,128.75],[206.851,128.536],[207.036,128.351],[207.25,128.201],[207.487,128.09],[207.74,128.023],[208,128],[235,128],[235.26,128.023],[235.513,128.09],[235.75,128.201],[235.964,128.351],[236.149,128.536],[236.299,128.75],[236.41,128.987],[236.477,129.24],[236.5,129.5],[236.5,146.5],[236.477,146.76],[236.41,147.013],[236.299,147.25],[231.299,157.25],[231.149,157.464],[230.964,157.649],[230.75,157.799],[230.513,157.91],[230.26,157.977],[230,158],[213,158],[212.74,157.977],[212.487,157.91],[212.25,157.799],[212.036,157.649],[211.851,157.464],[211.701,157.25],[206.701,147.25],[206.59,147.013],[206.523,146.76],[206.5,146.5],[206.5,129.5]]
EXCLUDE_OBJECT_DEFINE NAME=flowrate_m0.04_id_9_copy_0 CENTER=190.5,143 POLYGON=[[175.5,129.5],[175.523,129.24],[175.59,128.987],[175.701,128.75],[175.851,128.536],[176.036,128.351],[176.25,128.201],[176.487,128.09],[176.74,128.023],[177,128],[204,128],[204.26,128.023],[204.513,128.09],[204.75,128.201],[204.964,128.351],[205.149,128.536],[205.299,128.75],[205.41,128.987],[205.477,129.24],[205.5,129.5],[205.5,146.5],[205.477,146.76],[205.41,147.013],[205.299,147.25],[200.299,157.25],[200.149,157.464],[199.964,157.649],[199.75,157.799],[199.513,157.91],[199.26,157.977],[199,158],[182,158],[181.74,157.977],[181.487,157.91],[181.25,157.799],[181.036,157.649],[180.851,157.464],[180.701,157.25],[175.701,147.25],[175.59,147.013],[175.523,146.76],[175.5,146.5],[175.5,129.5]]
EXCLUDE_OBJECT_DEFINE NAME=flowrate_m0.05_id_10_copy_0 CENTER=159.5,143 POLYGON=[[144.5,129.5],[144.523,129.24],[144.59,128.987],[144.701,128.75],[144.851,128.536],[145.036,128.351],[145.25,128.201],[145.487,128.09],[145.74,128.023],[146,128],[173,128],[173.26,128.023],[173.513,128.09],[173.75,128.201],[173.964,128.351],[174.149,128.536],[174.299,128.75],[174.41,128.987],[174.477,129.24],[174.5,129.5],[174.5,146.5],[174.477,146.76],[174.41,147.013],[174.299,147.25],[169.299,157.25],[169.149,157.464],[168.964,157.649],[168.75,157.799],[168.513,157.91],[168.26,157.977],[168,158],[151,158],[150.74,157.977],[150.487,157.91],[150.25,157.799],[150.036,157.649],[149.851,157.464],[149.701,157.25],[144.701,147.25],[144.59,147.013],[144.523,146.76],[144.5,146.5],[144.5,129.5]]
M73 P0 R22
;TYPE:Custom
M104 S0
M140 S0
START_PRINT EXTRUDER_TEMP=235 BED_TEMP=55 MATERIAL=PLA
G90
G21
M83 ; use relative distances for extrusion
; Filament gcode
M106 S0
;LAYER_CHANGE
;Z:0.25
;HEIGHT:0.25
G92 E0
G1 E-.5 F1800
;_SET_FAN_SPEED_CHANGING_LAYER
SET_VELOCITY_LIMIT ACCEL=3000 ACCEL_TO_DECEL=1500
G1 Z.65 F36000
G1 X136.926 Y136.404
G1 Z.65
G1 Z.25
G1 E.5 F1800
;TYPE:Skirt
;WIDTH:0.5
G1 F3000
G1 X144.908 Y128.168 E.52145
G1 X145.429 Y127.875 E.0272
G1 X146 Y127.777 E.02633
G1 X235.016 Y127.778 E4.04709
G1 X235.607 Y127.888 E.02735
G1 X236.307 Y128.378 E.03883
G1 X236.612 Y128.893 E.0272
G1 X236.723 Y129.5 E.02807
G1 X236.723 Y210.5 E3.68265
G1 X236.693 Y210.818 E.01453
G1 X236.499 Y211.35 E.02573
G1 X231.499 Y221.35 E.50831
G1 X231.092 Y221.832 E.02867
G1 X230.571 Y222.125 E.0272
G1 X230 Y222.223 E.02633
G1 X120 Y222.223 E5.00113
G1 X119.682 Y222.193 E.01453
G1 X119.156 Y222.001 E.02545
G1 X118.668 Y221.592 E.02894
G1 X113.501 Y211.35 E.52156
G1 X113.278 Y210.519 E.0391
G1 X113.277 Y161.5 E2.22866
G1 X113.375 Y160.929 E.02633
G1 X113.691 Y160.381 E.02878
G1 X136.898 Y136.433 E1.51614
; printing object flowrate_0.05 id:5 copy 0
;WIPE_START
G1 X138.29 Y134.997 E-.5
;WIPE_END
EXCLUDE_OBJECT_START NAME=flowrate_0.05_id_5_copy_0
G1 Z.65 F36000
G1 X235.574 Y192.505 Z.65
G1 Z.25
G1 E.5 F1800
;TYPE:Outer wall
G1 X235.738 Y192.62 E.00957
G1 X235.88 Y192.762 E.00957
G1 X235.995 Y192.926 E.00957
G1 X236.079 Y193.107 E.00957
G1 X236.131 Y193.301 E.00957
G1 X236.15 Y193.515 E.0103
G1 X236.15 Y210.485 E.81087
G1 X236.131 Y210.699 E.0103
G1 X236.079 Y210.893 E.00957
G1 X235.995 Y211.074 E.00957
G1 X235.88 Y211.238 E.00957
G1 X235.738 Y211.38 E.00957
G1 X235.574 Y211.495 E.00957
G1 X235.393 Y211.579 E.00957
G1 X235.199 Y211.631 E.00957
G1 X234.985 Y211.65 E.0103
G1 X232.985 Y211.65 E.09557
G1 X232.679 Y211.677 E.01469
G1 X232.367 Y211.76 E.01542
G1 X232.074 Y211.897 E.01542
G1 X231.81 Y212.082 E.01542
G1 X231.582 Y212.31 E.01542
G1 X231.397 Y212.574 E.01542
G1 X231.26 Y212.867 E.01542
G1 X231.177 Y213.179 E.01542
G1 X231.15 Y213.485 E.01469
G1 X231.15 Y220.485 E.33449
G1 X231.131 Y220.699 E.0103
G1 X231.079 Y220.893 E.00957
G1 X230.995 Y221.074 E.00957
G1 X230.88 Y221.238 E.00957
G1 X230.738 Y221.38 E.00957
G1 X230.574 Y221.495 E.00957
G1 X230.393 Y221.579 E.00957
G1 X230.199 Y221.631 E.00957
G1 X229.985 Y221.65 E.0103
G1 X213.015 Y221.65 E.81087
G1 X212.801 Y221.631 E.0103
G1 X212.607 Y221.579 E.00957
G1 X212.426 Y221.495 E.00957
G1 X212.262 Y221.38 E.00957
G1 X212.12 Y221.238 E.00957
G1 X212.005 Y221.074 E.00957
G1 X211.921 Y220.893 E.00957
G1 X211.869 Y220.699 E.00957
G1 X211.85 Y220.485 E.0103
G1 X211.85 Y213.485 E.33449
G1 X211.823 Y213.179 E.01469
G1 X211.74 Y212.867 E.01542
G1 X211.603 Y212.574 E.01542
G1 X211.418 Y212.31 E.01542
G1 X211.19 Y212.082 E.01542
G1 X210.926 Y211.897 E.01542
G1 X210.633 Y211.76 E.01542
G1 X210.321 Y211.677 E.01542
G1 X210.015 Y211.65 E.01469
G1 X208.015 Y211.65 E.09557
G1 X207.801 Y211.631 E.0103
G1 X207.607 Y211.579 E.00957
G1 X207.426 Y211.495 E.00957
G1 X207.262 Y211.38 E.00957
G1 X207.12 Y211.238 E.00957
G1 X207.005 Y211.074 E.00957
G1 X206.921 Y210.893 E.00957
G1 X206.869 Y210.699 E.00957
G1 X206.85 Y210.485 E.0103
G1 X206.85 Y193.515 E.81088
G1 X206.869 Y193.301 E.0103
G1 X206.921 Y193.107 E.00957
G1 X207.005 Y192.926 E.00957
G1 X207.12 Y192.762 E.00957
G1 X207.262 Y192.62 E.00957
G1 X207.426 Y192.505 E.00957
G1 X207.607 Y192.421 E.00957
G1 X207.801 Y192.369 E.00957
G1 X208.015 Y192.35 E.0103
G1 X208.491 Y192.35 E.02274
G1 X235.001 Y192.351 E1.26674
G1 X235.199 Y192.369 E.00954
G1 X235.393 Y192.421 E.00957
G1 X235.556 Y192.497 E.00861
;WIPE_START
G1 X235.738 Y192.62 E-.05499
G1 X235.88 Y192.762 E-.05006
G1 X235.995 Y192.926 E-.05006
G1 X236.079 Y193.107 E-.05005
G1 X236.131 Y193.301 E-.05006
G1 X236.15 Y193.515 E-.0539
G1 X236.15 Y194.279 E-.19089
;WIPE_END
G1 Z.65 F36000
G1 X235.83 Y194.279 Z.65
G1 X230.861 Y213.123
G1 X230.83 Y213.471
G1 X230.83 Y220.471
G1 X230.817 Y220.626
G1 X231.002 Y220.642
G1 Z.25
G1 E.5 F1800
;TYPE:Bottom surface
;WIDTH:0.501377
G1 F5400
G1 X230.519 Y221.125 E.03274
G1 X230.406 Y221.204 E.00659
G1 X230.278 Y221.264 E.00679
G1 X230.141 Y221.3 E.00679
G1 X229.695 Y221.315 E.02138
G1 X230.815 Y220.195 E.07591
G1 X230.815 Y219.562 E.03035
G1 X229.062 Y221.315 E.11883
G1 X228.429 Y221.315 E.03035
M73 P1 R22
G1 X230.815 Y218.929 E.16175
G1 X230.815 Y218.296 E.03035
G1 X227.796 Y221.315 E.20467
G1 X227.163 Y221.315 E.03035
